X: 20222
M: 2/4
L: 1/16
K: D
|:\
d2AG F2d2 | A2f2 d2a2 | f2d2 cdef | gfed c2A2 |\
d2AG F2d2 | A2f2 d2d2 | cdef gfec | d2f2 d4 :|
|:\



